X:1
T:Ave maris stella
T:P. E. Lange-Müller (1850-1926)
T:Thor Lange
T:Ave maris stella
T:Op 65:1
T:©PA Aglert Edition may be freely distributed, duplicated, performed and recorded
T:©PA Aglert Edition may be freely distributed, duplicated, performed and recorded
T:©PA Aglert Edition may be freely distributed, duplicated, performed and recorded
T:©PA Aglert Edition may be freely distributed, duplicated, performed and recorded
C:P. E. Lange-Müller (1850-1926)
Z:©PA Aglert
Z:Edition may be freely distributed, duplicated, performed and recorded
%%score [ ( 1 2 ) 3 4 5 ]
L:1/8
Q:1/4=72
M:4/4
K:C
V:1 treble nm="S"
V:2 treble 
V:3 treble nm="A"
V:4 treble-8 nm="T"
V:5 bass nm="B"
V:1
"^Andante"!p! C>C D>D [EG]2 [EG]2 | D>D E>E [FA]2 [FA]2 |!p! E>"^cresc."E ^F>F G>G A>A | %3
w: Hil Dig, Ha- vets Stjär- ne,|Stjer- ne, kla- re, mil- de,|Red- nings- blus paa Ver- dens mör- ke|
w: |||
!<(! (_B2!<)!!>(! c>)B!>)!"^dim." A4 |[M:2/4]!p! A3 z |[M:4/4]!p! G>G A>A [_Bd]2 [Bd]2 | %6
w: Vo- ver * vil-|de!|Stær- ke Lys i Nat- ten,|
w: |||
!p! z4!mp!!<(! (_e2 f>)!<)!e |!f! d2"^dim."!>(! c2 G2!>)! _B2 | A2 F2 (GA) _B2 | (A2 F2 G4) | %10
w: |Ha- vets Stjer- ne,|hjælp, Guds Mo- * der|hø- * *|
w: Hil * Dig,||||
[M:2/4]!p! G3 !fermata!z |[M:4/4]!p! C>C D>D [EG]2 [EG]2 | D>D E>E [FA]2 [FA]2 | %13
w: je!|Hjælp os Vej at fin- de|hjem til Ham, hvem al- le|
w: |||
!p! E>"^cresc."E ^F>F G>G A>A |!<(! (_B2!<)! c>)!>(!B!>)!"^dim." A4 |[M:2/4]!p! A3 z | %16
w: vaa- de- sted- te Sjæ- le dybt til|Fo- de * fal-|de!|
w: |||
[M:4/4]!p! G>G A>A [_Bd]2 [Bd]2 |!p!"^cresc." z4!<(! (_e2 f>)!<)!e |!f! d2 c2 G2 _B2 | %19
w: Hil Dig, Ha- vets Stjær- ne,||Sol, Al- ver- dens|
w: |Ham, * vor|Sol * * *|
 A2 F2"^dim." (GA) _B2 | (A2 F2 G4) |!mp! G2 (A2 G4) | G2!p! (A2"^calando" G4) | G4 z4 |] %24
w: Gud og Frel- ser, *|A- * *|men! A- *|men, A- *|men!|
w: |||||
V:2
 x8 | x8 | x8 | F2 G2 A4 |[M:2/4] x4 |[M:4/4] x8 | G>G A>A _B2 c2 | _B2 G2 G2 B2 | x8 | x8 | %10
w: ||||||al- le Blin- des Ø- *||||
[M:2/4] x4 |[M:4/4] x8 | x8 | x8 | F2 G2 A4 |[M:2/4] x4 |[M:4/4] x8 | G>G A>A _B2 c2 | %18
w: |||||||med din Søn til- sam- men,|
 _B2 G2 G2 B2 | x8 | x8 | x8 | x8 | x8 |] %24
w: ||||||
V:3
!p! C>C _B,>B, C2 C2 | D>D _D>D C2 C2 |!p! E>"^cresc."E ^D>D E>E _E>E | D2- D>D"^dim." (F2 E2) | %4
w: Hil Dig, Ha- vets Stjär- ne,|Stjer- ne, kla- re, mil- de,|Red- nings- blus paa Ver- dens mör- ke|Vo- * ver vil- *|
[M:2/4]!p! ^F3 z |[M:4/4]!p! G>G _G>G F2 F2 |!p! G>G ^F>F!<(! G2 G2!<)! |!f! F2"^dim." _E2 G2 D2 | %8
w: de!|Stær- ke Lys i Nat- ten,|al- le Blin- des Ø- je,|Ha- vets Stjer- ne,|
 F2 C2 D2 _D2 | (C4 !courtesy!=D4) |[M:2/4]!p! E3 !fermata!z |[M:4/4]!p! C>C _B,>B, C2 C2 | %12
w: hjælp, Guds Mo- der|hø- *|je!|Hjælp os Vej at fin- de|
 D>D _D>D C2 C2 |!p! E>"^cresc."E ^D>D E>E _E>E | D2- D>D"^dim." (F2 E2) |[M:2/4]!p! ^F3 z | %16
w: hjem til Ham, hvem al- le|vaa- de- sted- te Sjæ- le dybt til|Fo- * de fal- *|de!|
[M:4/4]!p! G>G _G>G F2 F2 |!p! G>"^cresc."G ^F>F!<(! G2 G2!<)! |!f! F2 _E2 G2 D2 | %19
w: Hil Dig, Ha- vets Stjær- ne,|med din Søn til- sam- men,|Sol, Al- ver- dens|
 F2 C2"^dim." D2 _D2 | (C4 !courtesy!=D4) |!mp! E2 (F2 D4) | E2!p! (F2"^calando" D4) | E4 z4 |] %24
w: Gud og Frel- ser,|A- *|men! A- *|men, A- *|men!|
V:4
!p! G>G G>G G2 G2 | _B>B B>B A2 A2 |!p! c>"^cresc."c c>c c>c c>c | (_B2 A>)G"^dim." (d2 ^c2) | %4
w: Hil Dig, Ha- vets Stjär- ne,|Stjer- ne, kla- re, mil- de,|Red- nings- blus paa Ver- dens mör- ke|Vo- * ver vil- *|
[M:2/4]!p! d3 z |[M:4/4]!p! _e>e e>e d2 d2 |!p! _e>e e>e!<(! e2 d>c!<)! |!f! d2"^dim." _e2 d2 _B2 | %8
w: de!|Stær- ke Lys i Nat- ten,|al- le Blin- des Ø- je, men!|Ha- vets Stjer- ne,|
 c2 A2 _B2 G2 | (A2 c4 !courtesy!=B2) |[M:2/4]!p! c3 !fermata!z |[M:4/4]!p! G>G G>G G2 G2 | %12
w: hjælp, Guds Mo- der|hø- * *|je!|Hjælp os Vej at fin- de|
 _B>B B>B A2 A2 |!p! c>"^cresc."c c>c c>c c>c | (_B2 A>)G"^dim." (d2 ^c2) |[M:2/4]!p! d3 z | %16
w: hjem til Ham, hvem al- le|vaa- de- sted- te Sjæ- le dybt til|Fo- * de fal- *|de!|
[M:4/4]!p! _e>e e>e d2 d2 |!p! _e>"^cresc."e e>e!<(! e2 d>c!<)! |!f! d2 _e2 d2 _B2 | %19
w: Hil Dig, Ha- vets Stjær- ne,|med din Søn til- sam- men, vor|Sol, Al- ver- dens|
 c2 A2"^dim." _B2 G2 | (A2 c4 !courtesy!=B2) |!mp! c2 (c4 B2) | c2!p! (c4"^calando" B2) | c4 z4 |] %24
w: Gud og Frel- ser,|A- * *|men! A- *|men, A- *|men!|
V:5
!p! E,>E, D,>D, C,2 C,2 | G,>G, G,>G, F,2 F,2 |!p! A,>"^cresc."A, A,>A, G,>G, _G,>G, | %3
w: Hil Dig, Ha- vets Stjär- ne,|Stjer- ne, kla- re, mil- de,|Red- nings- blus paa Ver- dens mör- ke|
 F,2 E,2"^dim." A,4 |[M:2/4]!p! D,3 z |[M:4/4]!p! C>C C>C _B,2 B,2 |!p! C>C C>C!<(! _B,2 A,2!<)! | %7
w: Vo- ver vil-|de!|Stær- ke Lys i Nat- ten,|al- le Blin- des Ø- je,|
!f! _B,2"^dim." C2 B,2 G,2 | F,2 A,2 G,2 !courtesy!=E,2 | (F,2 A,2 G,4) | %10
w: Ha- vets Stjer- ne,|hjælp, Guds Mo- der|hø- * *|
[M:2/4]!p! C,3 !fermata!z |[M:4/4]!p! E,>E, D,>D, C,2 C,2 | G,>G, G,>G, F,2 F,2 | %13
w: je!|Hjælp os Vej at fin- de|hjem til Ham, hvem al- le|
!p! A,>"^cresc."A, A,>A, G,>G, _G,>G, | F,2 E,2"^dim." A,4 |[M:2/4]!p! D,3 z | %16
w: vaa- de- sted- te Sjæ- le dybt til|Fo- de fal-|de!|
[M:4/4]!p! C>C C>C _B,2 B,2 |!p! C>"^cresc."C C>C!<(! _B,2 A,2!<)! |!f! _B,2 C2 B,2 G,2 | %19
w: Hil Dig, Ha- vets Stjær- ne,|med din Søn til- sam- men,|Sol, Al- ver- dens|
 F,2 A,2"^dim." G,2 !courtesy!=E,2 | (F,2 A,2 G,4) |!mp! G,2 (D,2 G,4) | %22
w: Gud og Frel- ser,|A- * *|men! A- *|
 G,2!p! (D,2"^calando" G,4) | C,4 z4 |] %24
w: men, A- *|men!|

